X:6733
T:The Earl's Chair
O:england
M:4/4
L:1/8
Q:220
K:D
A|B2 dB BAFA|B2 dB BAFB|AF F2 DF F2|AFdB ADFA|
B2 dB BAFA|B2 dB BAFB|A3 B defd|edef d3:|
z|:e3 f d2 Bd|edef dBAB|e3 f d3 e|fedB ADFA|
e3 f dB B2|gB B2 defg|afbf afde|fedB ADFA:|


